X: 9478
T: Dargason
R: jig
M: 6/8
K: Gmajor
B2G G2B|B2c dcB|c2A A2A|c2d edc|
B2G G2G|g2g fed|c2A A2A|a2g fed:|
|:G2D D2D|G2A BAG|A2D D2D|A2B cBA|
G2D D2D|G2A B2G|A2G F2E|D2E F2D:|
|:G2D B,2D|G2D B,2D|F2D A,2D|F2D A,2D:|

